X: 17043
T: Heather Breeze, The
R: reel
M: 4/4
K: Gmajor
g2 gf gbag|fdde fgaf|defg abag|fdcA BGGF||
g2 gf gbag|fdde fgaf|gbag fagf|edcA (3Bcd AF||

